!!!COM: Felix Mendelssohn
!!!CNT: Deutsch
!!!TXO: Deutsch
!!!OTL: Lieblingspla2tzchen (aus "Des Knaben Wunderhorn")
!!!LYR: F. Robert
!!!OPS: Op. 99
!!!ONM: No. 3
!!!ENC: Daniel Alt & Leigh VanHandel
!!!YOR: Sa2mmtliche Lieder fu2r eine Singstimme 
!!!YOR: Neu revidirt von Dr. L. Benda, Ausgabe fu2r mittlere Stimme
!!!YOR: Braunschweig. Henry Litolff's Verlag. Boston and New York: Arthur P. Schmidt.
!!!ODT: 1830/
**kern	**silbe
*staff1	*
=1-	=1-
*clefG2	*
*k[f#]	*
*M3/4	*
{4.b	{Wisst
8b	ihr,
8b	wo
8b	ich
=2	=2
8.dd	ger-
16cc	-ne
2b	weil'
=3	=3
4.g	in
8g	der
8a	A-
8a	-bend-
=4	=4
8b	-ku2h-
8dd	|
4a}	-le?}
4r	.
=5	=5
{4.b	{In
8b	dem
8b	stil-
8b	-len
=6	=6
8.dd	Tha-
16cc	-le
2b	geht
=7	=7
4.g	ei-
8g	-ne
8a	klei-
8a	-ne
=8	=8
2b	Mu2h-
8f#}	-le,}
8r	.
=9	=9
{8f#	{und
8g	ein
4f#	klei-
4b	-ner
=10	=10
8f#	Bach
8g	da-
4f#}	-bei,}
4r	.
=11	=11
{8g	{rings
8f#	um-
8g	-her
8a	|
8b	steh'n
8cc#	|
=12	=12
4.ee	Ba2u-
8dd	|
8cc#	-me.
8ccn}	|}
=13	=13
{4.b	{Oft
8b	sitz'
8b	ich
8b	da
=14	=14
8.dd	stun-
16cc	-den-
2b	-lang,
=15	=15
8g	schau'
8f#	um-
4g	-her
4a	und
=16	=16
[2.b	tra2u-
=17	=17
4b]	|
4a	|
8cc	|
8b	|
=18	=18
4g}	-me.}
4r	.
4r	.
==	==
*-	*-